X:1
T:Was Frag’ Ich nach der Welt, 67.67.66.66
T:Was Frag’ Ich nach der Welt, 67.67.66.66
T:Ahasuerus Fritsch, 1679
T:Public Domain Courtesy of the Cyber Hymnal™
C:Ahasuerus Fritsch, 1679
Z:Public Domain
Z:Courtesy of the Cyber Hymnal™
%%score ( 1 2 ) ( 3 4 )
L:1/8
Q:1/4=115
M:none
K:C
V:1 treble 
V:2 treble 
V:3 bass 
V:4 bass 
V:1
 [DG]2 | [CE]2 (DC) [CG]2 [EG]2 | [FA]6 [DA]2 | (DC) [B,D]2 [CG]2 [DF]2 x | E2 D2 [G,C]2 [CG]2 | %5
 [CA]2 [FA]2 G2 [DF]2 | [CE]6 D2 | [CE]2 [C^F]2 [B,G]2 [EA]2 | (B2 AG) [DG]2 [DG]2 | %9
 G2 G2 [Gc]2 [E_B]2 | [FA]6 [GA]2 | [GA]2 [^FA]2 d2 c2 | [DB]6 [CG]2 | [CA]2 [CG]2 A2 [FB]2 | %14
 [Ec]6 [DG]2 | G2 (FE) [CD]2 [B,D]2 | [G,C]6 |] %17
V:2
 x2 | x2 B,2 x4 | x8 | x9 | DC-CB, x4 | x4 (FE) x2 | x8 | x8 | D4 x4 | (ED) (EF) x4 | x8 | %11
 x4 (^FE) (ED) | x8 | x4 (FE) x2 | x8 | (ED) C2 x4 | x6 |] %17
V:3
 [B,,G,]2 | [C,G,]2 [D,F,]2 [E,G,]2 [C,C]2 | [F,C]6 [^F,C]2 | (B,A,) G,2 G,2 x3 | %4
 G,4 [C,E,]2 [E,G,]2 | F,2 [D,A,]2 (B,C) (CB,) | [C,G,]6 [B,,G,]2 | [C,G,]2 A,2 [E,G,]2 G,2 | %8
 (G,2 ^F,2) [G,,B,]2 [E,G,]2 | C2 C2 [E,G,]2 [C,C]2 | [F,C]6 [^C,E]2 | %11
 D2 A,2 [B,,A,][C,G,] (G,^F,) | [G,,G,]6 [E,G,]2 | F,2 [E,G,]2 (DC) [^G,,D]2 | [A,,C]6 [B,,D]2 | %15
 G,2 A,2 [F,,A,]2 (G,F,) | [C,,C,E,]6 |] %17
V:4
 x2 | x8 | x8 | G,2 (G,F,) x (E,D,) (C,B,,) | C,2 G,,2 x4 | x4 G,2 G,,2 | x8 | %7
 x2 (B,,A,,) x (D,C,) x | D,4 x4 | x2 (C,D,) x4 | x8 | (D,E,) (D,C,) x D,2 x | x8 | x4 D,2 x2 | %14
 x8 | (C,B,,) (A,,G,,) x G,,2 x | x6 |] %17

